dist/assets/images/producersColor/Skanska 3.svg

<svg width="151" height="23" viewBox="0 0 151 23" fill="none" xmlns="http://www.w3.org/2000/svg">
<g clip-path="url(#clip0_351_1285)">
<path fill-rule="evenodd" clip-rule="evenodd" d="M69.4295 19.3903C69.4295 21.3903 68.7895 22.0703 66.8895 22.0703C65.8895 22.0703 64.7595 22.0103 64.0195 21.9403V0.280273H69.2895L78.4995 14.0403C78.4048 13.4754 78.3646 12.9028 78.3795 12.3303V0.330273H83.7995V21.9403C82.8895 22.0303 81.5795 22.0703 80.3395 22.0703C79.5974 22.1698 78.8428 22.0295 78.1861 21.6696C77.5294 21.3098 77.005 20.7494 76.6895 20.0703C75.8495 18.7803 69.3095 8.87027 69.3095 8.87027C69.4211 9.57778 69.4613 10.2947 69.4295 11.0103V19.4103V19.3903Z" fill="#253561"/>
<path fill-rule="evenodd" clip-rule="evenodd" d="M7.11922 0.290195C2.06922 0.520195 0.199219 3.4702 0.199219 6.7102C0.199219 9.9502 2.19922 13.2002 7.34922 13.3102C9.01922 13.3102 11.2092 13.3102 11.9592 13.3102C12.2438 13.2904 12.5295 13.3294 12.7983 13.4247C13.0672 13.5201 13.3137 13.6697 13.5223 13.8643C13.7309 14.0589 13.8972 14.2944 14.0109 14.556C14.1247 14.8177 14.1834 15.0999 14.1834 15.3852C14.1834 15.6705 14.1247 15.9527 14.0109 16.2144C13.8972 16.476 13.7309 16.7115 13.5223 16.9061C13.3137 17.1007 13.0672 17.2503 12.7983 17.3456C12.5295 17.441 12.2438 17.48 11.9592 17.4602C11.1992 17.4602 3.82922 17.4602 3.82922 17.4602C1.19922 17.4602 0.429219 18.2002 0.429219 20.7302V22.0702C2.94922 22.1302 7.32922 22.2102 12.5292 22.1402C17.7292 22.0702 19.8392 18.7102 19.8392 15.2602C19.8392 11.8102 17.6392 8.4402 12.5392 8.35019C11.0092 8.35019 8.45922 8.35019 7.67922 8.35019C7.20892 8.30188 6.77326 8.08086 6.4565 7.7299C6.13975 7.37893 5.96441 6.92296 5.96441 6.4502C5.96441 5.97743 6.13975 5.52146 6.4565 5.17049C6.77326 4.81953 7.20892 4.59851 7.67922 4.5502C8.46922 4.5002 14.9692 4.5502 14.9692 4.5502C17.6192 4.5502 18.3692 3.8002 18.3692 1.2802V0.280195C16.8892 0.280195 10.9792 0.100195 7.11922 0.280195" fill="#253561"/>
<path fill-rule="evenodd" clip-rule="evenodd" d="M93.5997 0.290195C88.5397 0.520195 86.6797 3.4802 86.6797 6.7102C86.6797 9.9402 88.7297 13.2002 93.8297 13.3102C95.4997 13.3102 97.6897 13.3102 98.4397 13.3102C98.7243 13.2904 99.0099 13.3294 99.2788 13.4247C99.5477 13.5201 99.7941 13.6697 100.003 13.8643C100.211 14.0589 100.378 14.2944 100.491 14.556C100.605 14.8177 100.664 15.0999 100.664 15.3852C100.664 15.6705 100.605 15.9527 100.491 16.2144C100.378 16.476 100.211 16.7115 100.003 16.9061C99.7941 17.1007 99.5477 17.2503 99.2788 17.3456C99.0099 17.441 98.7243 17.48 98.4397 17.4602C97.6797 17.4602 90.3097 17.4602 90.3097 17.4602C87.6597 17.4602 86.9097 18.2102 86.9097 20.7302V22.0702C89.4297 22.1302 93.8097 22.2102 99.0097 22.1402C104.21 22.0702 106.32 18.7102 106.32 15.2602C106.32 11.8102 104.12 8.4402 99.0197 8.35019C97.4897 8.35019 94.9397 8.35019 94.1597 8.35019C93.6894 8.30188 93.2537 8.08086 92.937 7.7299C92.6202 7.37893 92.4449 6.92296 92.4449 6.4502C92.4449 5.97743 92.6202 5.52146 92.937 5.17049C93.2537 4.81953 93.6894 4.59851 94.1597 4.5502C94.9497 4.5002 101.45 4.5502 101.45 4.5502C104.1 4.5502 104.85 3.8002 104.85 1.2802V0.280195C103.37 0.280195 97.4597 0.100195 93.5997 0.280195" fill="#253561"/>
<path fill-rule="evenodd" clip-rule="evenodd" d="M54.2575 13.4503L51.5775 4.97027L48.9075 13.4503C48.9752 13.3964 49.0614 13.3712 49.1475 13.3803H54.0075C54.0967 13.3707 54.1862 13.3958 54.2575 13.4503ZM63.3775 21.9403C62.6775 21.9403 61.1175 22.0703 59.9575 22.0703C58.1575 22.0703 56.8975 21.8303 56.3775 20.1803L55.6275 17.8103H47.5375L46.7975 20.2003C46.2775 21.8603 45.1375 22.0503 43.2875 22.0903C41.6475 22.0903 40.2175 22.0903 38.5175 22.0903C36.8175 22.0903 35.8775 21.6803 35.0875 20.7603L28.0875 12.6403C27.9651 12.5211 27.8815 12.3677 27.8475 12.2003V19.4303C27.8475 21.4303 27.2075 22.1103 25.2975 22.1103C24.2975 22.1103 22.6875 22.0503 21.9375 21.9803V0.280273H27.8375V10.1103C27.8489 9.88922 27.9333 9.6782 28.0775 9.51027L35.1975 0.280273H42.1975L33.1975 10.7803L40.6975 18.9303C40.7845 19.0232 40.8465 19.1368 40.8775 19.2603C40.8889 19.1439 40.9158 19.0295 40.9575 18.9203L48.4475 0.280273H54.7075L63.3775 21.9403Z" fill="#253561"/>
<path fill-rule="evenodd" clip-rule="evenodd" d="M141.078 13.4505L138.398 4.97051L135.728 13.4505C135.796 13.3966 135.882 13.3715 135.968 13.3805H140.828C140.917 13.3709 141.007 13.396 141.078 13.4505ZM150.198 21.9405C149.498 21.9405 147.938 22.0705 146.778 22.0705C144.968 22.0705 143.718 21.8305 143.198 20.1805L142.448 17.8105H134.368L133.618 20.2005C133.098 21.8605 131.958 22.0505 130.108 22.0905C128.468 22.0905 127.038 22.0905 125.338 22.0905C123.638 22.0905 122.698 21.6805 121.908 20.7605L114.908 12.6405C114.781 12.5125 114.697 12.3482 114.668 12.1705V19.4005C114.668 21.4005 114.028 22.0805 112.118 22.0805C111.118 22.0805 109.508 22.0205 108.758 21.9505V0.280508H114.658V10.1105C114.669 9.88946 114.754 9.67844 114.898 9.51051L122.028 0.280508H129.028L120.028 10.7705L127.528 18.9205C127.615 19.0134 127.677 19.127 127.708 19.2505C127.718 19.134 127.745 19.0195 127.788 18.9105L135.248 0.270508H141.508L150.198 21.9405Z" fill="#253561"/>
</g>
<defs>
<clipPath id="clip0_351_1285">
<rect width="150.4" height="22.3673" fill="white"/>
</clipPath>
</defs>
</svg>

<svg width="151" height="23" fill="none" xmlns="http://www.w3.org/2000/svg"><g clip-path="url(#clip0_351_1285)" fill-rule="evenodd" clip-rule="evenodd" fill="#253561"><path d="M69.43 19.39c0 2-.64 2.68-2.54 2.68-1 0-2.13-.06-2.87-.13V.28h5.27l9.21 13.76a8.936 8.936 0 01-.12-1.71v-12h5.42v21.61c-.91.09-2.22.13-3.46.13a3.51 3.51 0 01-3.65-2c-.84-1.29-7.38-11.2-7.38-11.2.111.708.151 1.425.12 2.14v8.4-.02zM7.12.29C2.07.52.2 3.47.2 6.71c0 3.24 2 6.49 7.15 6.6h4.61a2.08 2.08 0 110 4.15H3.83c-2.63 0-3.4.74-3.4 3.27v1.34c2.52.06 6.9.14 12.1.07 5.2-.07 7.31-3.43 7.31-6.88 0-3.45-2.2-6.82-7.3-6.91H7.68a1.91 1.91 0 010-3.8c.79-.05 7.29 0 7.29 0 2.65 0 3.4-.75 3.4-3.27v-1c-1.48 0-7.39-.18-11.25 0M93.6.29c-5.06.23-6.92 3.19-6.92 6.42s2.05 6.49 7.15 6.6h4.61a2.08 2.08 0 110 4.15h-8.13c-2.65 0-3.4.75-3.4 3.27v1.34c2.52.06 6.9.14 12.1.07 5.2-.07 7.31-3.43 7.31-6.88 0-3.45-2.2-6.82-7.3-6.91h-4.86a1.91 1.91 0 010-3.8c.79-.05 7.29 0 7.29 0 2.65 0 3.4-.75 3.4-3.27v-1c-1.48 0-7.39-.18-11.25 0M54.258 13.45l-2.68-8.48-2.67 8.48a.33.33 0 01.24-.07h4.86a.35.35 0 01.25.07zm9.12 8.49c-.7 0-2.26.13-3.42.13-1.8 0-3.06-.24-3.58-1.89l-.75-2.37h-8.09l-.74 2.39c-.52 1.66-1.66 1.85-3.51 1.89h-4.77c-1.7 0-2.64-.41-3.43-1.33l-7-8.12a.85.85 0 01-.24-.44v7.23c0 2-.64 2.68-2.55 2.68-1 0-2.61-.06-3.36-.13V.28h5.9v9.83a1 1 0 01.24-.6l7.12-9.23h7l-9 10.5 7.5 8.15a.75.75 0 01.18.33c.01-.116.038-.23.08-.34L48.448.28h6.26l8.67 21.66zm77.7-8.49l-2.68-8.48-2.67 8.48a.33.33 0 01.24-.07h4.86a.35.35 0 01.25.07zm9.12 8.49c-.7 0-2.26.13-3.42.13-1.81 0-3.06-.24-3.58-1.89l-.75-2.37h-8.08l-.75 2.39c-.52 1.66-1.66 1.85-3.51 1.89h-4.77c-1.7 0-2.64-.41-3.43-1.33l-7-8.12a.865.865 0 01-.24-.47v7.23c0 2-.64 2.68-2.55 2.68-1 0-2.61-.06-3.36-.13V.28h5.9v9.83a.999.999 0 01.24-.6l7.13-9.23h7l-9 10.49 7.5 8.15a.75.75 0 01.18.33c.01-.116.037-.23.08-.34l7.46-18.64h6.26l8.69 21.67z"/></g><defs><clipPath id="clip0_351_1285"><path fill="#fff" d="M0 0h150.4v22.367H0z"/></clipPath></defs></svg>
